!!!!SEGMENT: pl-sa--228-a-vi-32--008_luna-georgius--litania-ex-d-virgo-prudentissima.krn
!!!cenid: 17xx:453
!!!COM: Luna, Georgius
!!!COM-rismid: pe41010079
!!!CDT:
!!!CNT:
!!!OPR: Litania ex D
!!!OTL: Virgo prudentissima
!!!OMV: 008
!!!PDT:
!!!AGN: Sacred; Mass
!!!SMS-siglum: PL-SA
!!!SMS-shelfmark: 228/A VI 32
!!!SMS-shelfwork: 001-008 M
!!!SMS-variant: Violino Primo: PL-SA 228/A VI 32:12,14
!!!SMS-altvar: Violino Imo: PL-SA 228/A VI 32:30,31
!!!NIFC-rismid: 1001068968
!!!URL-scan: http://bc.bdsandomierz.pl/dlibra/publication/1604/edition/1572/content
!!!ONB-nifc: UWAGA: części Litanii: Sinfonia, Kyrie, Pater de caelis, Sancta trinitas, Sancta Maria,
**kern	**dynam	**kern	**dynam	**kern	**dynam	**kern	**text	**kern	**text	**kern	**kern
*part7	*part7	*part6	*part6	*part5	*part5	*part4	*part4	*part3	*part3	*part2	*part1
*	*	*group3	*	*group3	*	*group2	*	*group2	*	*group1	*group1
*staff7	*	*staff6	*	*staff5	*	*staff4	*staff4	*staff3	*staff3	*staff2	*staff1
*Iempty	*	*Ivioln	*	*Ivioln	*	*Itenor	*	*Ivox	*	*Iempty	*Iempty
*I"Fondamemto	*	*I"Violino Secundo	*	*I"Violino Primo	*	*I"Tenore	*	*I"Canto	*	*I"Clarino Socundo	*I"Clarino Primo
*I'Fun	*	*I'Vn II	*	*I'Vn I	*	*I'T.	*	*I'C.	*	*I'Cl II	*I'Cl I
*clefF4	*	*clefG2	*	*clefG2	*	*clefC4	*	*clefC1	*	*clefG2	*clefG2
*	*	*	*	*	*	*	*	*	*	*ITrd-1c-2	*ITrd-1c-2
*k[f#c#]	*	*k[f#c#]	*	*k[f#c#]	*	*k[f#c#]	*	*k[f#c#]	*	*k[f#c#]	*k[f#c#]
*D:	*	*D:	*	*D:	*	*D:	*	*D:	*	*D:	*D:
*M6/8	*	*M6/8	*	*M6/8	*	*M6/8	*	*M6/8	*	*M6/8	*M6/8
=1	=1	=1	=1	=1	=1	=1	=1	=1	=1	=1	=1
!LO:TX:a:t=Allo	!	!LO:TX:a:t=Allo	!	!LO:TX:a:t=Allo	!	!	!	!	!	!	!
!LO:TX:b:t=Virgo	!	!LO:TX:b:t=Virgo	!	!LO:TX:b:t=Virgo prudentissima.	!	!	!	!	!	!LO:TX:b:t=Virgo	!LO:TX:a:t=Allo
!LO:TX:a:t=P:problem:mixed beam	!	!LO:TX:a:t=P:problem:mixed beam	!	!LO:TX:a:t=P:problem:mixed beam	!	!LO:TX:a:t=Allo&colon;	!	!LO:TX:a:t=Allo&colon;	!	!LO:TX:a:t=Allo	!LO:TX:b:t=Viro
!	!	!	!	!	!	!LO:TX:a:t=P:problem:krzyżyki jeden nad drugim	!	!LO:TX:a:t=P:problem:krzyżyki f# cc# jeden nad drugim	!	!	!
!	!	!	!	!	!	!LO:N:vis=00	!	!LO:N:vis=00	!	!LO:N:vis=00	!LO:N:vis=00
8d\L	.	8dd\L	.	8dd\L	.	0.r	.	0.r	.	0.r	0.r
16D/L	.	16d/L	.	16d/L	.	.	.	.	.	.	.
16E/	.	16e/	.	16e/	.	.	.	.	.	.	.
16F#/	.	16f#/	.	16f#/	.	.	.	.	.	.	.
16G/JJ	.	16g/JJ	.	16g/JJ	.	.	.	.	.	.	.
8A\L	.	8a\L	.	8a/L	.	.	.	.	.	.	.
8B\	.	8b\	.	8b/	.	.	.	.	.	.	.
8c#\J	.	8cc#\J	.	8cc#/J	.	.	.	.	.	.	.
=2	=2	=2	=2	=2	=2	=2	=2	=2	=2	=2	=2
8d\L	.	8dd\L	.	8dd\L	.	.	.	.	.	.	.
8c#\	.	8cc#\	.	8cc#\	.	.	.	.	.	.	.
8B\J	.	8b\J	.	8b\J	.	.	.	.	.	.	.
8A\L	.	8a/L	.	8a/L	.	.	.	.	.	.	.
8G\	.	8g/	.	8g/	.	.	.	.	.	.	.
8F#\J	.	8f#/J	.	8f#/J	.	.	.	.	.	.	.
=3	=3	=3	=3	=3	=3	=3	=3	=3	=3	=3	=3
!LO:TX:a:t=P:problem:mixed beam	!	!	!	!LO:TX:a:t=P:problem:mixed beam	!	!	!	!	!	!	!
8B\L	.	8b/L	.	8b\L	.	.	.	.	.	.	.
16BB/L	.	16B/L	.	16B/L	.	.	.	.	.	.	.
16C#/	.	16c#/	.	16c#/	.	.	.	.	.	.	.
16D/	.	16d/	.	16d/	.	.	.	.	.	.	.
16E/JJ	.	16e/JJ	.	16e/JJ	.	.	.	.	.	.	.
8F#\L	.	8f#/L	.	8f#/L	.	.	.	.	.	.	.
8G\	.	8g/	.	8g/	.	.	.	.	.	.	.
8A\J	.	8a/J	.	8a/J	.	.	.	.	.	.	.
=4	=4	=4	=4	=4	=4	=4	=4	=4	=4	=4	=4
8B\L	.	8b\L	.	8b\L	.	.	.	.	.	.	.
8A\	.	8a\	.	8a\	.	.	.	.	.	.	.
8G\J	.	8g\J	.	8g\J	.	.	.	.	.	.	.
8F#\L	.	8f#/L	.	8f#/L	.	.	.	.	.	.	.
8E\	.	8e/	.	8e/	.	.	.	.	.	.	.
8D\J	.	8d/J	.	8d/J	.	.	.	.	.	.	.
=5	=5	=5	=5	=5	=5	=5	=5	=5	=5	=5	=5
!LO:TX:a:t=P:problem:mixed beam	!	!LO:TX:a:t=P:problem:mixed beam	!	!LO:TX:a:t=P:problem:mixed beam	!	!LO:N:vis=00	!	!LO:N:vis=00	!	!LO:N:vis=0	!LO:N:vis=0
8G\L	.	8gg\L	.	8gg\L	.	0.r	.	0.r	.	1.r	1.r
16GG/L	.	16g/L	.	16g/L	.	.	.	.	.	.	.
16AA/	.	16a/	.	16a/	.	.	.	.	.	.	.
16BB/	.	16b/	.	16b/	.	.	.	.	.	.	.
16C#/JJ	.	16cc#/JJ	.	16cc#/JJ	.	.	.	.	.	.	.
8D\L	.	8dd\L	.	8dd\L	.	.	.	.	.	.	.
8E\	.	8ee\	.	8ee\	.	.	.	.	.	.	.
8F#\J	.	8ff#\J	.	8ff#\J	.	.	.	.	.	.	.
!	!	!LO:LB:g=original	!	!	!	!	!	!	!	!	!
=6	=6	=6	=6	=6	=6	=6	=6	=6	=6	=6	=6
8F#\L	.	8ff#\L	.	8ff#\L	.	.	.	.	.	.	.
8E\	.	8ee\	.	8ee\	.	.	.	.	.	.	.
8D\J	.	8dd\J	.	8dd\J	.	.	.	.	.	.	.
4.AA/	.	4.a/	.	4.a/	.	.	.	.	.	.	.
=7	=7	=7	=7	=7	=7	=7	=7	=7	=7	=7	=7
!	!	!	!	!LO:TX:a:t=P:problem:mixed beam	!	!	!	!	!	!	!
4.AA/	.	8ff#\L	.	8aa\L	.	.	.	.	.	4.ff#\	4.aa\
.	.	8a\	.	8a/	.	.	.	.	.	.	.
.	.	8ff#\J	.	8aa\J	.	.	.	.	.	.	.
!	!	!	!	!LO:TX:a:t=P:problem:mixed beam	!	!	!	!	!	!	!
[4.AA/	.	8ee\L	.	8gg\L	.	.	.	.	.	4.ee\	4.gg\
.	.	8a\	.	8a/	.	.	.	.	.	.	.
.	.	8ee\J	.	8gg\J	.	.	.	.	.	.	.
=8	=8	=8	=8	=8	=8	=8	=8	=8	=8	=8	=8
4.AA/]	.	8dd\L	.	8ff#\L	.	.	.	.	.	4.dd\	4.ff#\
.	.	8a\	.	8a\	.	.	.	.	.	.	.
.	.	8dd\J	.	8ff#\J	.	.	.	.	.	.	.
4.AA/	.	8cc#\L	.	8ee\L	.	.	.	.	.	4.a/	4.ee\
.	.	8a\	.	8a\	.	.	.	.	.	.	.
.	.	8cc#\J	.	8ee\J	.	.	.	.	.	.	.
=9	=9	=9	=9	=9	=9	=9	=9	=9	=9	=9	=9
!	!	!	!LO:DY:t=pia	!LO:TX:a:t=P:problem:mixed beam	!LO:DY:rj:t=p	!LO:N:vis=00	!	!LO:N:vis=00	!	!	!
4.AA/	p	8ff#\L	p	8aa\L	p	0.r	.	0.r	.	4.ff#\	4.aa\
.	.	8a\	.	8a/	.	.	.	.	.	.	.
.	.	8ff#\J	.	8aa\J	.	.	.	.	.	.	.
!	!	!	!	!LO:TX:a:t=P:problem:mixed beam	!	!	!	!	!	!	!
4.AA/	.	8ee\L	.	8gg\L	.	.	.	.	.	4.ee\	4.gg\
.	.	8a\	.	8a/	.	.	.	.	.	.	.
.	.	8ee\J	.	8gg\J	.	.	.	.	.	.	.
=10	=10	=10	=10	=10	=10	=10	=10	=10	=10	=10	=10
4.AA/	.	8dd\L	.	8ff#\L	.	.	.	.	.	4.dd\	4.ff#\
.	.	8a\	.	8a\	.	.	.	.	.	.	.
.	.	8dd\J	.	8ff#\J	.	.	.	.	.	.	.
4.AA/	.	8cc#\L	.	8ee\L	.	.	.	.	.	4.a/	4.ee\
.	.	8a\	.	8a\	.	.	.	.	.	.	.
.	.	8cc#\J	.	8ee\J	.	.	.	.	.	.	.
!	!	!	!	!LO:PB:g=original	!	!	!	!	!	!	!
=11	=11	=11	=11	=11	=11	=11	=11	=11	=11	=11	=11
!	!LO:DY:t=fort	!	!	!	!	!	!	!	!	!	!
8D\L	f	4.dd\	.	4.dd\	.	.	.	.	.	8dd\L	8ff#\L
8F#\	.	.	.	.	.	.	.	.	.	8dd\	8ff#\
8G\J	.	.	.	.	.	.	.	.	.	8dd\J	8ff#\J
4.A\	.	8cc#\L	.	8cc#\L	.	.	.	.	.	4a/	4ee\
.	.	8b\	.	8b\	.	.	.	.	.	.	.
.	.	8a\J	.	8a\J	.	.	.	.	.	8r	8r
=12	=12	=12	=12	=12	=12	=12	=12	=12	=12	=12	=12
8G\L	.	4.b\	.	4.b\	.	.	.	.	.	8dd\L	8gg\L
8B\	.	.	.	.	.	.	.	.	.	8dd\	8gg\
8c#\J	.	.	.	.	.	.	.	.	.	8dd\J	8gg\J
4.d\	.	8a/L	.	8a/L	.	.	.	.	.	4dd\	4ff#\
.	.	8g/	.	8g/	.	.	.	.	.	.	.
.	.	8f#/J	.	8f#/J	.	.	.	.	.	8r	8r
!LO:LB:g=original	!	!	!	!	!	!	!	!	!	!	!
=13	=13	=13	=13	=13	=13	=13	=13	=13	=13	=13	=13
!	!	!	!	!	!	!LO:N:vis=0	!	!LO:N:vis=0	!	!	!
8E\L	.	4.gg\	.	4.gg\	.	1.r	.	1.r	.	4.ee\	4.gg\
8C#\	.	.	.	.	.	.	.	.	.	.	.
8AA\J	.	.	.	.	.	.	.	.	.	.	.
4D\	.	8ff#\L	.	8ff#\L	.	.	.	.	.	4.dd\	4ff#\
.	.	8ee\	.	8ee\	.	.	.	.	.	.	.
8F#\	.	8dd\J	.	8dd\J	.	.	.	.	.	.	8r
=14	=14	=14	=14	=14	=14	=14	=14	=14	=14	=14	=14
!	!	!LO:TX:a:t=P:problem:mixed beam	!	!LO:TX:a:t=P:problem:mixed beam	!	!	!	!	!	!	!
4G\	.	8bb\L	.	8bb\L	.	.	.	.	.	4a/	4ee\
.	.	8b/	.	8b/	.	.	.	.	.	.	.
8A\	.	8cc#/J	.	8cc#/J	.	.	.	.	.	8a/	8ee\
4.D\	.	4dd\	.	4dd\	.	.	.	.	.	4dd\	4ff#\
.	.	8d/	.	8d/	.	.	.	.	.	8dd\	8ff#\
=15	=15	=15	=15	=15	=15	=15	=15	=15	=15	=15	=15
!	!	!LO:TX:a:t=Tutti	!	!	!	!	!	!	!	!	!
4d\	.	4ff#\	.	4aa\	.	4A\	Vir-	4ff#\	Vir-	4dd\	4ff#\
8c#\	.	8ee\	.	8aa\	.	8A\	-go	8ee\	-go	8a/	8ee\
4d\	.	4ff#\	.	4aa\	.	4A\	pru-	4ff#\	pru-	4dd\	4ff#\
8c#\	.	8ee\	.	8aa\	.	8A\	-den-	8ee\	-den-	8a/	8ee\
=16	=16	=16	=16	=16	=16	=16	=16	=16	=16	=16	=16
4d\	.	8ff#\L	.	8aa\L	.	8d\L	-tis-	8ff#\L	-tiſ-	8dd\L	8ff#\L
.	.	8dd\	.	8dd\	.	8e\J	.	8gg\J	.	8ee\	8gg\
8G\	.	8ff#\J	.	8ddd\J	.	8d\	-si-	8ff#\	-si-	8dd\J	8ff#\J
!	!	!	!	!LO:TX:a:t=P:problem:mixed beam	!	!	!	!	!	!	!
4A\	.	8ee\L	.	8ccc#\L	.	4.c#\	-ma	4.ee\	-ma	4a/	4ee\
.	.	8cc#\	.	8aa\	.	.	.	.	.	.	.
8AA/	.	8a\J	.	8a/J	.	.	.	.	.	8a/	8ee\
=17	=17	=17	=17	=17	=17	=17	=17	=17	=17	=17	=17
4B\	.	4dd\	.	4ff#\	.	4F#/	Vir-	4dd\	Vir-	4ff#\	4ff#\
8A#X\	.	8cc#\	.	8ff#\	.	8F#/	-go	8cc#\	-go	8ff#\	8ff#\
4B\	.	4dd\	.	4ff#\	.	4F#/	ve-	4dd\	ve-	4ff#\	4ff#\
8A#X\	.	8cc#\	.	8ff#\	.	8F#/	-ne	8cc#\	-ne	8ff#\	8ff#\
!	!	!LO:LB:g=original	!	!	!	!	!	!LO:LB:g=original	!	!	!
=18	=18	=18	=18	=18	=18	=18	=18	=18	=18	=18	=18
4B\	.	8dd\L	.	8ff#\L	.	8B\L	ran-	8dd\L	ran-	4ff#\	4ff#\
.	.	8b\	.	8b\	.	8c#\	.	8ee\	.	.	.
8E\	.	8dd\J	.	8bb\J	.	8B\J	.	8dd\J	.	8ff#\	8ff#\
!	!	!	!	!LO:TX:a:t=P:problem:mixed beam	!	!	!	!	!	!	!
4F#\	.	8cc#\L	.	8aa#X\L	.	4.A#X\	-da	4.cc#\	-da	4ff#\	4ff#\
.	.	8a#X\	.	8cc#\	.	.	.	.	.	.	.
8FF#/	.	8f#\J	.	8f#/J	.	.	.	.	.	8ff#\	8ff#\
!	!	!	!	!	!	!	!	!	!	!	!LO:LB:g=original
=19	=19	=19	=19	=19	=19	=19	=19	=19	=19	=19	=19
4G\	.	4b\	.	4dd\	.	4d\	Vir-	4b\	Vir-	4dd\	4dd\
8F#\	.	8a\	.	8dd\	.	8d\	-go	8a\	-go	8dd\	8dd\
4G\	.	4b\	.	4dd\	.	4d\	pre-	4b\	pre-	4dd\	4dd\
8F#\	.	8a\	.	8dd\	.	8d\	-di-	8a\	-di-	8dd\	8dd\
!	!	!	!	!	!	!	!	!	!	!LO:LB:g=original	!
=20	=20	=20	=20	=20	=20	=20	=20	=20	=20	=20	=20
4G\	.	8b\L	.	8dd\L	.	4d\	-can-	4b\	-can-	4dd\	4dd\
.	.	8dd\	.	8bb\	.	.	.	.	.	.	.
8A\	.	8ee\J	.	8ccc#\J	.	8e\	.	8cc#\	.	8a/	8ee\
!	!	!LO:TX:a:t=P:problem:mixed beam	!	!LO:TX:a:t=P:problem:mixed beam	!	!	!	!	!	!	!
4.D\	.	8ff#\L	.	8ddd\L	.	4.f#\	-da	4.dd\	-da	4dd\	4ff#\
.	.	8f#/	.	8d/	.	.	.	.	.	.	.
.	.	8f#/J	.	8d/J	.	.	.	.	.	8dd\	8ff#\
=21	=21	=21	=21	=21	=21	=21	=21	=21	=21	=21	=21
4d\	.	4ff#\	.	4aa\	.	4d\	o-	4ff#\	o-	4dd\	4ff#\
8c#\	.	8ee\	.	8aa\	.	8c#\	.	8ee\	.	8a/	8ee\
4d\	.	4ff#\	.	4aa\	.	4d\	-ra	4ff#\	-ra	4dd\	4ff#\
8c#\	.	8ee\	.	8aa\	.	8c#\	pro-	8ee\	pro-	8a/	8ee\
!	!	!	!	!LO:LB:g=original	!	!LO:LB:g=original	!	!	!	!	!
=22	=22	=22	=22	=22	=22	=22	=22	=22	=22	=22	=22
4B\	.	4dd\	.	4gg\	.	4.B\	-no-	4.dd\	-no-	4ee\	4ee\
8E\	.	8dd\	.	8gg\	.	.	.	.	.	8ee\	8ee\
4A\	.	4cc#\	.	4aa\	.	4A\	-bis	4cc#\	-bis	4a/	4ee\
8E\	.	8dd\	.	8bb\	.	8B\	o-	8dd\	o-	8a/	8ee\
=23	=23	=23	=23	=23	=23	=23	=23	=23	=23	=23	=23
4A\	.	4cc#\	.	4aa\	.	8A\L	-ra	8cc#\L	-ra	4a/	4ee\
.	.	.	.	.	.	8B\J	.	8b\J	.	.	.
8AA/	.	8cc#\	.	8aa\	.	8c#\	pro-	8a\	pro-	8a/	8ee\
4E\	.	4b\	.	4gg#X\	.	8G#X/L	-no-	8b\L	-no-	4ee\	4ee\
.	.	.	.	.	.	8A/	.	8a\	.	.	.
8E\	.	8b\	.	8gg#\	.	8B/J	.	8g#X\J	.	8ee\	8ee\
!LO:LB:g=original	!	!	!	!	!	!	!	!	!	!	!
=24	=24	=24	=24	=24	=24	=24	=24	=24	=24	=24	=24
!LO:TX:a:t=P:problem:mixed beam	!	!LO:TX:a:t=P:problem:mixed beam	!	!LO:TX:a:t=P:problem:mixed beam	!	!	!	!	!	!LO:N:vis=4	!
8A\L	.	8aa\L	.	8aa\L	.	4.c#\	-bis	4.a\	-bis	4.a/	4.ee\
16AA/L	.	16a/L	.	16a/L	.	.	.	.	.	.	.
16BB/	.	16b/	.	16b/	.	.	.	.	.	.	.
16C#/	.	16cc#/	.	16cc#/	.	.	.	.	.	.	.
16D/JJ	.	16dd/JJ	.	16dd/JJ	.	.	.	.	.	.	.
8E\L	.	8ee\L	.	8ee\L	.	4r	.	4r	.	4r	4r
8F#\	.	8ff#\	.	8ff#\	.	.	.	.	.	.	.
8G#X\J	.	8gg#X\J	.	8gg#X\J	.	8r	.	8r	.	8r	8r
=25	=25	=25	=25	=25	=25	=25	=25	=25	=25	=25	=25
!	!	!	!	!	!	!LO:N:vis=00	!	!LO:N:vis=00	!	!LO:N:vis=00	!LO:N:vis=00
8A\L	.	8aa\L	.	8aa\L	.	0.r	.	0.r	.	0.r	0.r
8G#X\	.	8gg#X\	.	8gg#X\	.	.	.	.	.	.	.
8F#\J	.	8ff#\J	.	8ff#\J	.	.	.	.	.	.	.
8E\L	.	8ee\L	.	8ee\L	.	.	.	.	.	.	.
8D\	.	8dd\	.	8dd\	.	.	.	.	.	.	.
8C#\J	.	8cc#\J	.	8cc#\J	.	.	.	.	.	.	.
=26	=26	=26	=26	=26	=26	=26	=26	=26	=26	=26	=26
!LO:TX:a:t=P:problem:mixed beam	!	!LO:TX:a:t=P:problem:mixed beam	!	!LO:TX:a:t=P:problem:mixed beam	!	!	!	!	!	!	!
8F#\L	.	8ff#\L	.	8ff#\L	.	.	.	.	.	.	.
16FF#/L	.	16f#/L	.	16f#/L	.	.	.	.	.	.	.
16GG#X/	.	16g#X/	.	16g#X/	.	.	.	.	.	.	.
!LO:TX:a:t=a	!	!	!	!	!	!	!	!	!	!	!
16AA/	.	16a/	.	16a/	.	.	.	.	.	.	.
16BB/JJ	.	16b/JJ	.	16b/JJ	.	.	.	.	.	.	.
8C#\L	.	8cc#\L	.	8cc#\L	.	.	.	.	.	.	.
8D\	.	8dd\	.	8dd\	.	.	.	.	.	.	.
8E\J	.	8ee\J	.	8ee\J	.	.	.	.	.	.	.
=27	=27	=27	=27	=27	=27	=27	=27	=27	=27	=27	=27
8F#\L	.	8ff#\L	.	8ff#\L	.	.	.	.	.	.	.
8E\	.	8ee\	.	8ee\	.	.	.	.	.	.	.
8D\J	.	8dd\J	.	8dd\J	.	.	.	.	.	.	.
8C#/L	.	8cc#\L	.	8cc#\L	.	.	.	.	.	.	.
8BB/	.	8b\	.	8b\	.	.	.	.	.	.	.
8AA/J	.	8a\J	.	8a\J	.	.	.	.	.	.	.
!	!	!LO:PB:g=original	!	!	!	!	!	!	!	!	!
=28	=28	=28	=28	=28	=28	=28	=28	=28	=28	=28	=28
!LO:TX:a:t=P:problem:mixed beam	!	!LO:TX:a:t=P:problem:mixed beam	!	!LO:TX:a:t=P:problem:mixed beam	!	!	!	!	!	!	!
8d\L	.	8dd\L	.	8dd\L	.	.	.	.	.	.	.
16D/L	.	16d/L	.	16d/L	.	.	.	.	.	.	.
16E/	.	16e/	.	16e/	.	.	.	.	.	.	.
16F#/	.	16f#/	.	16f#/	.	.	.	.	.	.	.
16G#X/JJ	.	16g#X/JJ	.	16g#X/JJ	.	.	.	.	.	.	.
8A\L	.	8a\L	.	8a\L	.	.	.	.	.	.	.
8B\	.	8b\	.	8b\	.	.	.	.	.	.	.
8c#\J	.	8cc#\J	.	8cc#\J	.	.	.	.	.	.	.
=29	=29	=29	=29	=29	=29	=29	=29	=29	=29	=29	=29
!	!	!	!	!	!	!LO:N:vis=00	!	!LO:N:vis=00	!	!	!
8c#\L	.	8cc#\L	.	8cc#\L	.	0.r	.	0.r	.	2.r	2.r
8B\	.	8b\	.	8b\	.	.	.	.	.	.	.
8A\J	.	8a\J	.	8a\J	.	.	.	.	.	.	.
4.E\	.	4.e/	.	4.e/	.	.	.	.	.	.	.
=30	=30	=30	=30	=30	=30	=30	=30	=30	=30	=30	=30
!	!	!LO:TX:a:t=P:problem:mixed beam	!	!LO:TX:a:t=P:problem:mixed beam	!	!	!	!	!	!	!
4.E\	.	8cc#/L	.	8ee\L	.	.	.	.	.	4.ee\	4.ee\
.	.	8e/	.	8e/	.	.	.	.	.	.	.
.	.	8cc#/J	.	8ee\J	.	.	.	.	.	.	.
!	!	!	!	!LO:TX:a:t=P:problem:mixed beam	!	!	!	!	!	!	!
[4.E\	.	8b/L	.	8dd\L	.	.	.	.	.	4.ee\	4.ee\
.	.	8e/	.	8e/	.	.	.	.	.	.	.
.	.	8b/J	.	8dd\J	.	.	.	.	.	.	.
=31	=31	=31	=31	=31	=31	=31	=31	=31	=31	=31	=31
!	!	!	!	!LO:TX:a:t=P:problem:mixed beam	!	!	!	!	!	!	!
4.E\]	.	8a/L	.	8cc#\L	.	.	.	.	.	4.ee\	4.ee\
.	.	8e/	.	8e/	.	.	.	.	.	.	.
.	.	8a/J	.	8cc#\J	.	.	.	.	.	.	.
[4.E\	.	8g#X/L	.	8b\L	.	.	.	.	.	4.ee\	4.ee\
.	.	8e/	.	8e\	.	.	.	.	.	.	.
.	.	8g#/J	.	8b\J	.	.	.	.	.	.	.
!	!	!	!	!LO:LB:g=original	!	!	!	!	!	!	!
=32	=32	=32	=32	=32	=32	=32	=32	=32	=32	=32	=32
!	!LO:DY:t=Pia&colon;	!	!LO:DY:rj	!LO:TX:a:t=P:problem:mixed beam	!LO:DY:rj:t=p	!	!	!	!	!	!
4.E\]	p	8cc#/L	p	8ee\L	p	.	.	.	.	4.ee\	4.ee\
.	.	8e/	.	8e/	.	.	.	.	.	.	.
.	.	8cc#/J	.	8ee\J	.	.	.	.	.	.	.
!	!	!	!	!LO:TX:a:t=P:problem:mixed beam	!	!	!	!	!	!	!
4.E\	.	8b/L	.	8dd\L	.	.	.	.	.	4.ee\	4.ee\
.	.	8e/	.	8e/	.	.	.	.	.	.	.
.	.	8b/J	.	8dd\J	.	.	.	.	.	.	.
=33	=33	=33	=33	=33	=33	=33	=33	=33	=33	=33	=33
!	!	!	!	!LO:TX:a:t=P:problem:mixed beam	!	!LO:N:vis=00	!	!LO:N:vis=00	!	!	!
4.E\	.	8a/L	.	8cc#\L	.	0.r	.	0.r	.	4.ee\	4.ee\
.	.	8e/	.	8e/	.	.	.	.	.	.	.
.	.	8a/J	.	8cc#\J	.	.	.	.	.	.	.
4.E\	.	8g#X/L	.	8b\L	.	.	.	.	.	4.ee\	4.ee\
.	.	8e/	.	8e\	.	.	.	.	.	.	.
.	.	8g#/J	.	8b\J	.	.	.	.	.	.	.
=34	=34	=34	=34	=34	=34	=34	=34	=34	=34	=34	=34
!	!LO:DY:t=for	!	!	!	!LO:DY:rj:t=f	!	!	!	!	!	!
8AA/L	f	4.aa\	.	4.aa\	f	.	.	.	.	8a/L	8ee\L
8C#/	.	.	.	.	.	.	.	.	.	8a/	8ee\
8D/J	.	.	.	.	.	.	.	.	.	8a/J	8ee\J
!LO:N:vis=4	!	!	!	!	!	!	!	!	!	!	!
4.E\	.	8gg#X\L	.	8gg#X\L	.	.	.	.	.	4.ee\	4.ee\
.	.	8ff#\	.	8ff#\	.	.	.	.	.	.	.
.	.	8ee\J	.	8ee\J	.	.	.	.	.	.	.
=35	=35	=35	=35	=35	=35	=35	=35	=35	=35	=35	=35
8D\L	.	4.ff#\	.	4.ff#\	.	.	.	.	.	8dd\L	8ff#\L
8F#\	.	.	.	.	.	.	.	.	.	8dd\	8ff#\
8G#X\J	.	.	.	.	.	.	.	.	.	8dd\J	8ff#\J
!LO:N:vis=4	!	!	!	!	!	!	!	!	!	!	!
4.A\	.	8ee\L	.	8ee\L	.	.	.	.	.	4.a/	4.ee\
.	.	8dd\	.	8dd\	.	.	.	.	.	.	.
.	.	8cc#\J	.	8cc#\J	.	.	.	.	.	.	.
!LO:LB:g=original	!	!	!	!	!	!	!	!	!	!	!
=36	=36	=36	=36	=36	=36	=36	=36	=36	=36	=36	=36
8B\L	.	4.dd\	.	4.dd\	.	.	.	.	.	8ee\L	8ee\L
8G#X\	.	.	.	.	.	.	.	.	.	8ee\	8ee\
8E\J	.	.	.	.	.	.	.	.	.	8ee\J	8ee\J
4A\	.	8cc#\L	.	8cc#\L	.	.	.	.	.	4.a/	4.ee\
.	.	8b\	.	8b\	.	.	.	.	.	.	.
8C#/	.	8a\J	.	8a\J	.	.	.	.	.	.	.
!	!	!	!	!	!	!	!	!	!	!	!LO:LB:g=original
=37	=37	=37	=37	=37	=37	=37	=37	=37	=37	=37	=37
!	!	!LO:TX:a:t=P:problem:mixed beam	!	!LO:TX:a:t=P:problem:mixed beam	!	!	!	!	!	!	!
4D\	.	8ff#\L	.	8ff#\L	.	2.r	.	2.r	.	4ee\	4ee\
.	.	8f#/	.	8f#/	.	.	.	.	.	.	.
8E\	.	8g#X/J	.	8g#X/J	.	.	.	.	.	8ee\	8ee\
4.AA/	.	4a/	.	4a/	.	.	.	.	.	4.a/	4.ee\
.	.	8A/	.	8A/	.	.	.	.	.	.	.
!	!	!	!	!	!	!	!	!LO:LB:g=original	!	!	!
=38	=38	=38	=38	=38	=38	=38	=38	=38	=38	=38	=38
!	!	!LO:TX:a:t=Tutti	!	!LO:TX:a:t=P:problem:mixed beam w taktach 38-42	!	!	!	!	!	!	!
4A\	.	4cc#\	.	16aa\LL	.	4e\	Vir-	4cc#\	Vir-	8a/L	8a/L
.	.	.	.	16a/JJ	.	.	.	.	.	.	.
.	.	.	.	16aa\LL	.	.	.	.	.	16a/L	16a/L
.	.	.	.	16a/JJ	.	.	.	.	.	16a/	16a/
8B\	.	8dd\	.	16aa\LL	.	8d\	-go	8dd\	-go	16a/	16a/
.	.	.	.	16a/JJ	.	.	.	.	.	16a/JJ	16a/JJ
!	!	!	!	!	!	!	!	!	!	!LO:LB:g=original	!
8c#\L	.	8ee\L	.	16aa\LL	.	8c#\L	po-	8ee\L	po-	8a/L	8a/L
.	.	.	.	16a/JJ	.	.	.	.	.	.	.
8A\	.	8ggn\	.	16aa\LL	.	8e\J	.	8gg\J	.	16a/L	16a/L
.	.	.	.	16a/JJ	.	.	.	.	.	16a/J	16a/J
8d\J	.	8ff#\J	.	16aa\LL	.	8d\	-tens	8ff#\	-tens	8a/J	8a/J
.	.	.	.	16a/JJ	.	.	.	.	.	.	.
!	!	!LO:LB:g=original	!	!	!	!	!	!	!	!	!
=39	=39	=39	=39	=39	=39	=39	=39	=39	=39	=39	=39
4A\	.	4cc#\	.	16aa\LL	.	4e\	Vir-	4cc#\	Vir-	8a/L	8a/L
.	.	.	.	16a/JJ	.	.	.	.	.	.	.
.	.	.	.	16aa\LL	.	.	.	.	.	16a/L	16a/L
.	.	.	.	16a/JJ	.	.	.	.	.	16a/	16a/
8B\	.	8dd\	.	16aa\LL	.	8d\	-go	8dd\	-go	16a/	16a/
.	.	.	.	16a/JJ	.	.	.	.	.	16a/JJ	16a/JJ
8c#\L	.	8ee\L	.	16aa\LL	.	8c#\L	Cle-	8ee\L	Cle-	8a/L	8a/L
.	.	.	.	16a/JJ	.	.	.	.	.	.	.
8A\	.	8gg\	.	16aa\LL	.	8e\J	.	8gg\J	.	16a/L	16a/L
.	.	.	.	16a/JJ	.	.	.	.	.	16a/J	16a/J
8d\J	.	8ff#\J	.	16aa\LL	.	8d\	-mes	8ff#\	-mes	8a/J	8a/J
.	.	.	.	16a/JJ	.	.	.	.	.	.	.
=40	=40	=40	=40	=40	=40	=40	=40	=40	=40	=40	=40
4D\	.	4f#/	.	16dd\LL	.	4F#/	Vir-	4.dd\	Vir-	8d/L	8d/L
.	.	.	.	16d/JJ	.	.	.	.	.	.	.
.	.	.	.	16dd\LL	.	.	.	.	.	16d/L	16d/L
.	.	.	.	16d/JJ	.	.	.	.	.	16d/	16d/
8E\	.	8g/	.	16dd\LL	.	8G/	.	.	.	16d/	16d/
.	.	.	.	16d/JJ	.	.	.	.	.	16d/JJ	16d/JJ
8F#\L	.	8a\L	.	16dd\LL	.	8A\L	.	4.dd\	-go	8d/L	8d/L
.	.	.	.	16d/JJ	.	.	.	.	.	.	.
8A\	.	8ccn\	.	16dd\LL	.	8cn\J	.	.	.	16d/L	16d/L
.	.	.	.	16d/JJ	.	.	.	.	.	16d/J	16d/J
8G\J	.	8b\J	.	16dd\LL	.	8B\	-go	.	.	8d/J	8d/J
.	.	.	.	16d/JJ	.	.	.	.	.	.	.
!	!	!	!	!LO:LB:g=original	!	!	!	!	!	!	!
=41	=41	=41	=41	=41	=41	=41	=41	=41	=41	=41	=41
!	!	!	!	!	!	!	!	!	!	!LO:TX:a:t=P:problem:brak taktu	!
4D\	.	4f#/	.	16dd\LL	.	(4F#/	fi-	4.dd\	Fi-	2.ryy	8d/L
.	.	.	.	16d/JJ	.	.	.	.	.	.	.
.	.	.	.	16dd\LL	.	.	.	.	.	.	16d/L
.	.	.	.	16d/JJ	.	.	.	.	.	.	16d/
8E\	.	8g/	.	16dd\LL	.	8G/)	.	.	.	.	16d/
.	.	.	.	16d/JJ	.	.	.	.	.	.	16d/JJ
!	!	!	!	!	!	!LO:LB:g=original	!	!	!	!	!
8F#\L	.	8a\L	.	16dd\LL	.	8A\L	-de-	4dd\	-de-	.	8d/L
.	.	.	.	16d/JJ	.	.	.	.	.	.	.
8A\	.	8ccn\	.	16dd\LL	.	8cn\J	.	.	.	.	16d/L
.	.	.	.	16d/JJ	.	.	.	.	.	.	16d/J
8G\J	.	8b\J	.	16dd\LL	.	8B\	-lis	8dd\	-lis	.	8d/J
.	.	.	.	16d/JJ	.	.	.	.	.	.	.
=42	=42	=42	=42	=42	=42	=42	=42	=42	=42	=42	=42
8D/L	.	8dd\L	.	8ff#\L	.	8d\	o-	8ff#\	o-	8dd\L	8ff#\L
8C#/	.	8ee\	.	8gg\	.	8e\	-ra	8gg\	-ra	8ee\	8gg\
8D/J	.	8dd\J	.	8ff#\J	.	8d\	pro-	8ff#\	pro-	8dd\J	8ff#\J
!LO:TX:a:t=P:problem:mixed beam	!	!	!	!	!	!	!	!	!	!	!
8A\L	.	8dd\L	.	8ff#\L	.	8d\	-no-	8ff#\	-no-	8dd\L	8ff#\L
8AA/J	.	8cc#X\J	.	8ee\J	.	8c#X\	-bis	8ee\	-bis	16a\L	16ee\L
.	.	.	.	.	.	.	.	.	.	16a\J	16ee\J
8r	.	8r	.	8r	.	8r	.	8r	.	8a\J	8ee\J
=43	=43	=43	=43	=43	=43	=43	=43	=43	=43	=43	=43
4d\	.	16ff#\LL	.	16ff#\LL	.	4.B\	o-	4.ff#\	o-	4dd\	4ff#\
.	.	16aa\JJ	.	16aa\JJ	.	.	.	.	.	.	.
.	.	4aaT\	.	4aaT\	.	.	.	.	.	.	.
8d\	.	.	.	.	.	.	.	.	.	8r	8r
4B\	.	16ff#\LL	.	16ff#\LL	.	4.d\	-ra	4.ff#\	-ra	4dd\	4ff#\
.	.	16dd\JJ	.	16dd\JJ	.	.	.	.	.	.	.
.	.	4ddT\	.	4ddT\	.	.	.	.	.	.	.
8B\	.	.	.	.	.	.	.	.	.	8r	8r
=44	=44	=44	=44	=44	=44	=44	=44	=44	=44	=44	=44
4c#\	.	16ee\LL	.	16ee\LL	.	4.A\	o-	4.ee\	o-	4a/	4ee\
.	.	16aa\JJ	.	16aa\JJ	.	.	.	.	.	.	.
.	.	4aaT\	.	4aaT\	.	.	.	.	.	.	.
8c#\	.	.	.	.	.	.	.	.	.	8r	8r
4A\	.	16ee\LL	.	16ee\LL	.	4.c#\	-ra	4.ee\	-ra	4a/	4ee\
.	.	16cc#\JJ	.	16cc#\JJ	.	.	.	.	.	.	.
.	.	4cc#\	.	4cc#t\	.	.	.	.	.	.	.
8A\	.	.	.	.	.	.	.	.	.	8r	8r
!	!	!	!	!	!	!	!	!	!	!	!LO:LB:g=original
=45	=45	=45	=45	=45	=45	=45	=45	=45	=45	=45	=45
4B\	.	16dd\LL	.	16dd\LL	.	4.G/	o-	4.dd\	o-	4dd\	4dd\
.	.	16ggn\JJ	.	16ggn\JJ	.	.	.	.	.	.	.
.	.	4ggT\	.	4ggT\	.	.	.	.	.	.	.
8B\	.	.	.	.	.	.	.	.	.	8r	8r
!	!	!	!	!	!	!	!	!LO:LB:g=original	!	!	!
4G\	.	16dd\LL	.	16dd\LL	.	4.B\	-ra	4.dd\	-ra	4dd\	4dd\
.	.	16b\JJ	.	16b\JJ	.	.	.	.	.	.	.
.	.	4bT\	.	4bT\	.	.	.	.	.	.	.
8G\	.	.	.	.	.	.	.	.	.	8r	8r
=46	=46	=46	=46	=46	=46	=46	=46	=46	=46	=46	=46
4A\	.	4cc#\	.	4ee\	.	4.c#\	o-	4.ee\	o-	4a/	4ee\
8G\	.	8cc#\	.	8ee\	.	.	.	.	.	8a/	8ee\
4F#\	.	4dd\	.	4ff#\	.	4d\	-ra	4ff#\	-ra	4dd\	4ff#\
8G\	.	8ee\	.	8gg\	.	8B\	pro-	8ee\	pro-	8ee\	8gg\
!LO:LB:g=original	!	!	!	!	!	!	!	!	!	!	!
=47	=47	=47	=47	=47	=47	=47	=47	=47	=47	=47	=47
4A\	.	4dd\	.	4ff#\	.	4.d\	-no-	4.ff#\	-no-	4dd\	4ff#\
8A\	.	8dd\	.	8ff#\	.	.	.	.	.	8dd\	8ff#\
4AA/	.	4cc#\	.	4ee\	.	4.c#\	.	4.ee\	.	4a/	4ee\
8AA/	.	8cc#\	.	8ee\	.	.	.	.	.	8a/	8ee\
=48	=48	=48	=48	=48	=48	=48	=48	=48	=48	=48	=48
!	!	!	!	!LO:TX:a:t=P:problem:mixed beam	!	!	!	!	!	!	!
4.AA/	.	8ff#\L	.	8aa\L	.	4.d\	-bis.	4.ff#\	-bis	4.ff#\	4.aa\
.	.	8a\	.	8a/	.	.	.	.	.	.	.
.	.	8ff#\J	.	8aa\J	.	.	.	.	.	.	.
!	!	!	!	!LO:TX:a:t=P:problem:mixed beam	!	!	!	!	!	!	!
4.AA/	.	8ee\L	.	8gg\L	.	8r	.	4r	.	4.ee\	4.gg\
.	.	8a\	.	8a/	.	4r	.	.	.	.	.
.	.	8ee\J	.	8gg\J	.	.	.	8r	.	.	.
!	!	!LO:LB:g=original	!	!	!	!	!	!	!	!	!
=49	=49	=49	=49	=49	=49	=49	=49	=49	=49	=49	=49
!	!	!	!	!LO:TX:a:t=P:problem:mixed beam	!	!LO:N:vis=00	!	!LO:N:vis=00	!	!	!
4.AA/	.	8dd\L	.	8ff#\L	.	0.r	.	0.r	.	4.dd\	4.ff#\
.	.	8a\	.	8a/	.	.	.	.	.	.	.
.	.	8dd\J	.	8ff#\J	.	.	.	.	.	.	.
[>4.AA/	.	8cc#\L	.	8ee\L	.	.	.	.	.	4.a/	4.ee\
.	.	8a\	.	8a\	.	.	.	.	.	.	.
.	.	8cc#\J	.	8ee\J	.	.	.	.	.	.	.
=50	=50	=50	=50	=50	=50	=50	=50	=50	=50	=50	=50
!	!LO:DY:t=Pia	!	!LO:DY:rj	!LO:TX:a:t=P:problem:mixed beam	!LO:DY:rj:t=p	!	!	!	!	!	!
4.AA/]	p	8ff#\L	p	8aa\L	p	.	.	.	.	4.ff#\	4.aa\
.	.	8a\	.	8a/	.	.	.	.	.	.	.
.	.	8ff#\J	.	8aa\J	.	.	.	.	.	.	.
!	!	!	!	!LO:TX:a:t=P:problem:mixed beam	!	!	!	!	!	!	!
4.AA/	.	8ee\L	.	8gg\L	.	.	.	.	.	4.ee\	4.gg\
.	.	8a\	.	8a/	.	.	.	.	.	.	.
.	.	8ee\J	.	8gg\J	.	.	.	.	.	.	.
!	!	!	!	!LO:LB:g=original	!	!	!	!	!	!	!
=51	=51	=51	=51	=51	=51	=51	=51	=51	=51	=51	=51
4.AA/	.	8dd\L	.	8ff#\L	.	.	.	.	.	4.dd\	4.ff#\
.	.	8a\	.	8a\	.	.	.	.	.	.	.
.	.	8dd\J	.	8ff#\J	.	.	.	.	.	.	.
4.AA/	.	8cc#\L	.	8ee\L	.	.	.	.	.	4.a/	4.ee\
.	.	8a\	.	8a\	.	.	.	.	.	.	.
.	.	8cc#\J	.	8ee\J	.	.	.	.	.	.	.
!	!	!	!	!	!	!	!	!	!	!LO:LB:g=original	!
=52	=52	=52	=52	=52	=52	=52	=52	=52	=52	=52	=52
!	!	!	!	!	!LO:DY:t=f.	!	!	!	!	!	!
8D\L	.	4.dd\	.	4.dd\	f	.	.	.	.	8dd\L	8ff#\L
8F#\	.	.	.	.	.	.	.	.	.	8dd\	8ff#\
8G\J	.	.	.	.	.	.	.	.	.	8dd\J	8ff#\J
4.A\	.	8cc#\L	.	8cc#\L	.	.	.	.	.	4a/	4ee\
.	.	8b\	.	8b\	.	.	.	.	.	.	.
.	.	8a\J	.	8a\J	.	.	.	.	.	8r	8r
=53	=53	=53	=53	=53	=53	=53	=53	=53	=53	=53	=53
!	!	!	!	!	!	!LO:N:vis=00	!	!LO:N:vis=00	!	!	!
8G\L	.	4.b\	.	4.b\	.	0.r	.	0.r	.	8dd\L	8gg\L
8B\	.	.	.	.	.	.	.	.	.	8dd\	8gg\
8c#\J	.	.	.	.	.	.	.	.	.	8dd\J	8gg\J
4.d\	.	8a/L	.	8a/L	.	.	.	.	.	4dd\	4ff#\
.	.	8g/	.	8g/	.	.	.	.	.	.	.
.	.	8f#/J	.	8f#/J	.	.	.	.	.	8r	8r
=54	=54	=54	=54	=54	=54	=54	=54	=54	=54	=54	=54
8E\L	.	4.gg\	.	4.gg\	.	.	.	.	.	8a/L	8ee\L
8C#\	.	.	.	.	.	.	.	.	.	8a/	8ee\
8AA\J	.	.	.	.	.	.	.	.	.	8a/J	8ee\J
4D\	.	8ff#\L	.	8ff#\L	.	.	.	.	.	4.dd\	4.ff#\
.	.	8ee\	.	8ee\	.	.	.	.	.	.	.
8F#\	.	8dd\J	.	8dd\J	.	.	.	.	.	.	.
=55	=55	=55	=55	=55	=55	=55	=55	=55	=55	=55	=55
!	!	!	!	!LO:TX:a:t=P:problem:mixed beam	!	!	!	!	!	!	!
4G\	.	8bb\L	.	8bb\L	.	.	.	.	.	8a/L	8ee\L
.	.	8b\	.	8b/	.	.	.	.	.	8a/	8ee\
8A\	.	8cc#\J	.	8cc#/J	.	.	.	.	.	8a/J	8ee\J
!	!	!LO:TX:a:t=P:problem:mixed beam	!	!LO:TX:a:t=P:problem:mixed beam	!	!	!	!	!	!	!
8D\L	.	8dd/L	.	8dd\L	.	.	.	.	.	8dd\L	8ff#\L
8D\	.	8d/	.	8d/	.	.	.	.	.	8dd\	8ff#\
8D\J	.	8d/J	.	8d/J	.	.	.	.	.	8dd\J	8ff#\J
=56	=56	=56	=56	=56	=56	=56	=56	=56	=56	=56	=56
4.D\	.	4.d/	.	4.d/	.	.	.	.	.	4.dd\	4.ff#\
4r	.	4r	.	4r	.	.	.	.	.	4r	4r
8r	.	8r	.	8r	.	.	.	.	.	8r	8r
==;	==	==	==	==	==	==	==	==	==	==;	==
*-	*-	*-	*-	*-	*-	*-	*-	*-	*-	*-	*-
!!!system-decoration: [g1][g2][g3]s7
!!!RDF**kern: > = above
!!!RDF**dynam: p = "p:"
!!!ENC: Marta Lawrence
!!!END: 2020-10-14
!!!ENC: Marcin Jachim
!!!END: 2020-05-21
